X:1
T:LES VERNES
C:Michel PLATRE
Z:Creative Commons BY-NC-SA
L:1/8
M:2/4
K:C
V:1 treble 
V:1
 A |: e>d ef | e3 c | d>e dB | cA BA | e>d ef | e3 c | d>e dB |1 cB AA :|2 cB A2 |: A>G AB | %11
 c>A Bc | d>B cd | e4 | e>d ef | e>c de | c2 B2 | A4 :| %18

